gold-coast/wp-gold-coast-reverse.svg

<?xml version="1.0" encoding="UTF-8" standalone="no"?><!DOCTYPE svg PUBLIC "-//W3C//DTD SVG 1.1//EN" "http://www.w3.org/Graphics/SVG/1.1/DTD/svg11.dtd"><svg width="100%" height="100%" viewBox="0 0 236 75" version="1.1" xmlns="http://www.w3.org/2000/svg" xmlns:xlink="http://www.w3.org/1999/xlink" xml:space="preserve" style="fill-rule:evenodd;clip-rule:evenodd;stroke-linejoin:round;stroke-miterlimit:1.41421;"><g><rect x="14.603" y="0" width="59.297" height="75" style="fill:#00adef;"/><path d="M47.029,66.08l20.72,-38.937l-14.575,0l-20.719,38.937l14.574,0Z" style="fill:#0184e7;fill-rule:nonzero;"/><path d="M73.89,66.08l0.01,-27.341l-14.584,27.341l14.574,0Z" style="fill:#0184e7;fill-rule:nonzero;"/><path d="M20.455,66.08l20.72,-38.937l-14.574,0l-11.998,22.549l0,16.388l5.852,0Z" style="fill:#0184e7;fill-rule:nonzero;"/><path d="M20.736,66.108l-20.736,-38.965l14.585,0l20.734,38.965l-14.583,0l0,0Z" style="fill:#fff;fill-rule:nonzero;"/><path d="M47.327,66.108l-20.735,-38.965l14.585,0l20.734,38.965l-14.584,0Z" style="fill:#fff;fill-rule:nonzero;"/><path d="M73.919,66.108l-20.734,-38.965l14.584,0l20.734,38.965l-14.584,0l0,0Z" style="fill:#fff;fill-rule:nonzero;"/><path d="M88.764,27.953l3.916,0l3.441,11.249l3.726,-11.297l3.133,0l3.726,11.297l3.441,-11.249l3.821,0l-5.672,16.733l-3.181,0l-3.749,-10.87l-3.75,10.87l-3.18,0l-5.672,-16.733l0,0Z" style="fill:#fff;fill-rule:nonzero;"/><path d="M121.497,36.331c0.918,0 1.629,-0.242 2.135,-0.724c0.507,-0.482 0.76,-1.08 0.76,-1.791l0,-0.047c0,-0.824 -0.265,-1.449 -0.795,-1.876c-0.53,-0.428 -1.254,-0.64 -2.172,-0.64l-2.824,0l0,5.078l2.896,0Zm-6.55,-8.378l6.787,0c0.997,0 1.887,0.14 2.67,0.416c0.782,0.277 1.447,0.669 1.994,1.174c0.546,0.506 0.964,1.112 1.257,1.816c0.293,0.704 0.44,1.482 0.44,2.338l0,0.047c0,0.965 -0.175,1.811 -0.522,2.538c-0.349,0.728 -0.828,1.339 -1.436,1.83c-0.609,0.489 -1.322,0.857 -2.136,1.102c-0.816,0.247 -1.69,0.369 -2.623,0.369l-2.777,0l0,4.982l-3.654,0l0,-16.612l0,0Z" style="fill:#fff;fill-rule:nonzero;"/><g><path d="M96.786,66.272c-1.297,0 -2.479,-0.214 -3.547,-0.641c-1.067,-0.427 -1.985,-1.02 -2.752,-1.78c-0.767,-0.759 -1.364,-1.66 -1.791,-2.704c-0.427,-1.044 -0.641,-2.183 -0.641,-3.417l0,-0.047c0,-1.187 0.218,-2.298 0.653,-3.334c0.435,-1.036 1.04,-1.945 1.815,-2.728c0.775,-0.783 1.692,-1.4 2.752,-1.851c1.06,-0.451 2.222,-0.676 3.488,-0.676c0.743,0 1.419,0.051 2.028,0.154c0.609,0.103 1.175,0.249 1.697,0.439c0.522,0.19 1.012,0.427 1.471,0.712c0.459,0.284 0.901,0.609 1.328,0.972l-2.301,2.776c-0.316,-0.269 -0.633,-0.506 -0.949,-0.711c-0.316,-0.206 -0.645,-0.38 -0.985,-0.522c-0.34,-0.143 -0.707,-0.253 -1.103,-0.333c-0.395,-0.079 -0.83,-0.118 -1.305,-0.118c-0.664,0 -1.285,0.138 -1.862,0.415c-0.578,0.277 -1.084,0.649 -1.519,1.115c-0.435,0.467 -0.775,1.012 -1.02,1.637c-0.245,0.625 -0.368,1.293 -0.368,2.005l0,0.048c0,0.759 0.123,1.459 0.368,2.099c0.245,0.641 0.593,1.199 1.044,1.673c0.451,0.475 0.981,0.842 1.589,1.103c0.609,0.261 1.286,0.392 2.029,0.392c1.36,0 2.507,-0.332 3.44,-0.997l0,-2.372l-3.677,0l0,-3.156l7.213,0l0,7.213c-0.854,0.728 -1.871,1.348 -3.049,1.862c-1.179,0.515 -2.527,0.772 -4.046,0.772l0,0Z" style="fill:#00adef;fill-rule:nonzero;"/><path d="M113.727,62.902c0.728,0 1.4,-0.134 2.017,-0.403c0.617,-0.269 1.143,-0.641 1.578,-1.115c0.435,-0.475 0.775,-1.024 1.02,-1.649c0.245,-0.625 0.368,-1.293 0.368,-2.005l0,-0.047c0,-0.712 -0.123,-1.384 -0.368,-2.017c-0.245,-0.633 -0.593,-1.186 -1.044,-1.661c-0.451,-0.474 -0.985,-0.85 -1.602,-1.127c-0.616,-0.277 -1.289,-0.415 -2.016,-0.415c-0.744,0 -1.42,0.134 -2.029,0.403c-0.609,0.269 -1.131,0.641 -1.566,1.115c-0.435,0.475 -0.775,1.024 -1.02,1.649c-0.245,0.625 -0.368,1.293 -0.368,2.005l0,0.048c0,0.711 0.123,1.384 0.368,2.016c0.245,0.633 0.593,1.187 1.044,1.661c0.451,0.475 0.981,0.85 1.589,1.127c0.609,0.277 1.286,0.415 2.029,0.415l0,0Zm-0.047,3.37c-1.282,0 -2.46,-0.226 -3.536,-0.677c-1.075,-0.45 -2.004,-1.059 -2.787,-1.827c-0.783,-0.767 -1.392,-1.668 -1.827,-2.704c-0.435,-1.036 -0.653,-2.148 -0.653,-3.334l0,-0.047c0,-1.187 0.222,-2.298 0.665,-3.334c0.442,-1.036 1.055,-1.945 1.838,-2.728c0.783,-0.783 1.717,-1.4 2.8,-1.851c1.084,-0.451 2.266,-0.676 3.547,-0.676c1.281,0 2.46,0.225 3.535,0.676c1.076,0.451 2.005,1.06 2.788,1.827c0.783,0.767 1.392,1.669 1.827,2.705c0.435,1.036 0.653,2.147 0.653,3.333l0,0.048c0,1.186 -0.222,2.297 -0.665,3.333c-0.443,1.036 -1.056,1.946 -1.839,2.729c-0.783,0.783 -1.716,1.4 -2.799,1.85c-1.084,0.451 -2.266,0.677 -3.547,0.677l0,0Z" style="fill:#00adef;fill-rule:nonzero;"/><path d="M124.001,49.378l3.653,0l0,13.287l8.281,0l0,3.322l-11.934,0l0,-16.609l0,0Z" style="fill:#00adef;fill-rule:nonzero;"/><path d="M143.385,62.689c0.743,0 1.424,-0.119 2.041,-0.356c0.616,-0.237 1.142,-0.577 1.577,-1.02c0.435,-0.443 0.775,-0.965 1.021,-1.566c0.245,-0.601 0.367,-1.274 0.367,-2.017l0,-0.047c0,-0.728 -0.122,-1.4 -0.367,-2.017c-0.246,-0.617 -0.586,-1.147 -1.021,-1.59c-0.435,-0.443 -0.961,-0.787 -1.577,-1.032c-0.617,-0.245 -1.298,-0.368 -2.041,-0.368l-2.823,0l0,10.013l2.823,0Zm-6.477,-13.311l6.477,0c1.297,0 2.487,0.21 3.571,0.629c1.083,0.419 2.017,1.001 2.8,1.744c0.783,0.743 1.388,1.617 1.815,2.622c0.427,1.004 0.64,2.092 0.64,3.262l0,0.048c0,1.17 -0.213,2.262 -0.64,3.274c-0.427,1.012 -1.032,1.89 -1.815,2.633c-0.783,0.744 -1.717,1.329 -2.8,1.756c-1.084,0.427 -2.274,0.641 -3.571,0.641l-6.477,0l0,-16.609l0,0Z" style="fill:#00adef;fill-rule:nonzero;"/><path d="M165.952,66.272c-1.218,0 -2.349,-0.222 -3.393,-0.665c-1.044,-0.443 -1.945,-1.048 -2.705,-1.815c-0.759,-0.767 -1.352,-1.673 -1.779,-2.717c-0.427,-1.043 -0.641,-2.159 -0.641,-3.345l0,-0.047c0,-1.187 0.214,-2.298 0.641,-3.334c0.427,-1.036 1.02,-1.945 1.779,-2.728c0.76,-0.783 1.669,-1.4 2.729,-1.851c1.06,-0.451 2.23,-0.676 3.511,-0.676c0.775,0 1.483,0.063 2.124,0.189c0.64,0.127 1.222,0.301 1.744,0.522c0.522,0.222 1.004,0.491 1.447,0.807c0.443,0.317 0.854,0.665 1.234,1.044l-2.325,2.681c-0.649,-0.585 -1.309,-1.044 -1.981,-1.376c-0.673,-0.332 -1.428,-0.498 -2.266,-0.498c-0.696,0 -1.341,0.134 -1.934,0.403c-0.593,0.269 -1.103,0.641 -1.53,1.115c-0.427,0.475 -0.76,1.024 -0.997,1.649c-0.237,0.625 -0.356,1.293 -0.356,2.005l0,0.048c0,0.711 0.119,1.384 0.356,2.016c0.237,0.633 0.566,1.187 0.985,1.661c0.419,0.475 0.925,0.85 1.518,1.127c0.593,0.277 1.246,0.415 1.958,0.415c0.949,0 1.751,-0.174 2.408,-0.522c0.656,-0.348 1.309,-0.822 1.957,-1.423l2.325,2.349c-0.427,0.458 -0.869,0.87 -1.328,1.234c-0.459,0.363 -0.961,0.676 -1.507,0.937c-0.546,0.261 -1.143,0.458 -1.791,0.593c-0.649,0.134 -1.376,0.202 -2.183,0.202Z" style="fill:#00adef;fill-rule:nonzero;"/><path d="M182.015,62.902c0.727,0 1.4,-0.134 2.016,-0.403c0.617,-0.269 1.143,-0.641 1.578,-1.115c0.435,-0.475 0.775,-1.024 1.021,-1.649c0.245,-0.625 0.367,-1.293 0.367,-2.005l0,-0.047c0,-0.712 -0.122,-1.384 -0.367,-2.017c-0.246,-0.633 -0.594,-1.186 -1.044,-1.661c-0.451,-0.474 -0.985,-0.85 -1.602,-1.127c-0.617,-0.277 -1.289,-0.415 -2.017,-0.415c-0.743,0 -1.419,0.134 -2.028,0.403c-0.609,0.269 -1.131,0.641 -1.566,1.115c-0.435,0.475 -0.775,1.024 -1.02,1.649c-0.246,0.625 -0.368,1.293 -0.368,2.005l0,0.048c0,0.711 0.122,1.384 0.368,2.016c0.245,0.633 0.593,1.187 1.043,1.661c0.451,0.475 0.981,0.85 1.59,1.127c0.609,0.277 1.285,0.415 2.029,0.415l0,0Zm-0.048,3.37c-1.281,0 -2.459,-0.226 -3.535,-0.677c-1.076,-0.45 -2.005,-1.059 -2.788,-1.827c-0.783,-0.767 -1.392,-1.668 -1.827,-2.704c-0.435,-1.036 -0.652,-2.148 -0.652,-3.334l0,-0.047c0,-1.187 0.221,-2.298 0.664,-3.334c0.443,-1.036 1.056,-1.945 1.839,-2.728c0.783,-0.783 1.716,-1.4 2.8,-1.851c1.083,-0.451 2.266,-0.676 3.547,-0.676c1.281,0 2.459,0.225 3.535,0.676c1.076,0.451 2.005,1.06 2.788,1.827c0.783,0.767 1.392,1.669 1.827,2.705c0.435,1.036 0.652,2.147 0.652,3.333l0,0.048c0,1.186 -0.221,2.297 -0.664,3.333c-0.443,1.036 -1.056,1.946 -1.839,2.729c-0.783,0.783 -1.716,1.4 -2.8,1.85c-1.083,0.451 -2.265,0.677 -3.547,0.677l0,0Z" style="fill:#00adef;fill-rule:nonzero;"/><path d="M201.826,59.035l-2.206,-5.386l-2.207,5.386l4.413,0Zm-3.843,-9.775l3.369,0l7.118,16.727l-3.82,0l-1.519,-3.725l-7.023,0l-1.518,3.725l-3.725,0l7.118,-16.727l0,0Z" style="fill:#00adef;fill-rule:nonzero;"/><path d="M215.16,66.224c-1.265,0 -2.507,-0.217 -3.725,-0.652c-1.217,-0.435 -2.325,-1.104 -3.321,-2.005l2.159,-2.586c0.759,0.616 1.538,1.107 2.337,1.471c0.799,0.363 1.673,0.545 2.622,0.545c0.759,0 1.348,-0.138 1.767,-0.415c0.419,-0.277 0.629,-0.66 0.629,-1.151l0,-0.047c0,-0.237 -0.043,-0.447 -0.13,-0.629c-0.087,-0.182 -0.254,-0.352 -0.499,-0.51c-0.245,-0.158 -0.585,-0.316 -1.02,-0.474c-0.435,-0.159 -1,-0.325 -1.696,-0.499c-0.839,-0.205 -1.598,-0.435 -2.278,-0.688c-0.68,-0.253 -1.258,-0.565 -1.732,-0.937c-0.475,-0.372 -0.842,-0.834 -1.103,-1.388c-0.261,-0.554 -0.392,-1.242 -0.392,-2.064l0,-0.048c0,-0.759 0.142,-1.443 0.427,-2.052c0.285,-0.609 0.684,-1.135 1.198,-1.578c0.514,-0.443 1.127,-0.783 1.839,-1.02c0.712,-0.237 1.495,-0.356 2.349,-0.356c1.218,0 2.337,0.182 3.357,0.546c1.021,0.364 1.958,0.886 2.812,1.566l-1.898,2.752c-0.744,-0.506 -1.471,-0.906 -2.183,-1.198c-0.712,-0.293 -1.424,-0.439 -2.135,-0.439c-0.712,0 -1.246,0.138 -1.602,0.415c-0.356,0.277 -0.534,0.621 -0.534,1.032l0,0.048c0,0.269 0.052,0.502 0.154,0.7c0.103,0.197 0.289,0.375 0.558,0.533c0.269,0.159 0.637,0.309 1.103,0.451c0.467,0.143 1.056,0.309 1.768,0.499c0.838,0.221 1.586,0.47 2.242,0.747c0.656,0.277 1.21,0.609 1.661,0.996c0.451,0.388 0.791,0.843 1.02,1.365c0.229,0.522 0.344,1.146 0.344,1.874l0,0.047c0,0.823 -0.15,1.555 -0.451,2.195c-0.3,0.641 -0.719,1.179 -1.257,1.614c-0.538,0.435 -1.179,0.767 -1.922,0.996c-0.743,0.229 -1.566,0.344 -2.468,0.344Z" style="fill:#00adef;fill-rule:nonzero;"/><path d="M226.525,52.748l-5.053,0l0,-3.37l13.761,0l0,3.37l-5.054,0l0,13.239l-3.654,0l0,-13.239l0,0Z" style="fill:#00adef;fill-rule:nonzero;"/></g></g></svg>

<?xml version="1.0" encoding="UTF-8" standalone="no"?>
<!DOCTYPE svg PUBLIC "-//W3C//DTD SVG 1.1//EN" "http://www.w3.org/Graphics/SVG/1.1/DTD/svg11.dtd">
<svg width="100%" height="100%" viewBox="0 0 314 100" version="1.1" xmlns="http://www.w3.org/2000/svg" xmlns:xlink="http://www.w3.org/1999/xlink" xml:space="preserve" style="fill-rule:evenodd;clip-rule:evenodd;stroke-linejoin:round;stroke-miterlimit:1.41421;">
    <g transform="matrix(1.33333,0,0,1.33333,0,0)">
        <rect x="14.603" y="0" width="59.297" height="75" style="fill:rgb(0,173,239);"/>
        <path d="M47.029,66.08L67.749,27.143L53.174,27.143L32.455,66.08L47.029,66.08Z" style="fill:rgb(1,132,231);fill-rule:nonzero;"/>
        <path d="M73.89,66.08L73.9,38.739L59.316,66.08L73.89,66.08Z" style="fill:rgb(1,132,231);fill-rule:nonzero;"/>
        <path d="M20.455,66.08L41.175,27.143L26.601,27.143L14.603,49.692L14.603,66.08L20.455,66.08Z" style="fill:rgb(1,132,231);fill-rule:nonzero;"/>
        <path d="M20.736,66.108L0,27.143L14.585,27.143L35.319,66.108L20.736,66.108L20.736,66.108Z" style="fill:white;fill-rule:nonzero;"/>
        <path d="M47.327,66.108L26.592,27.143L41.177,27.143L61.911,66.108L47.327,66.108Z" style="fill:white;fill-rule:nonzero;"/>
        <path d="M73.919,66.108L53.185,27.143L67.769,27.143L88.503,66.108L73.919,66.108L73.919,66.108Z" style="fill:white;fill-rule:nonzero;"/>
        <path d="M88.764,27.953L92.68,27.953L96.121,39.202L99.847,27.905L102.98,27.905L106.706,39.202L110.147,27.953L113.968,27.953L108.296,44.686L105.115,44.686L101.366,33.816L97.616,44.686L94.436,44.686L88.764,27.953L88.764,27.953Z" style="fill:white;fill-rule:nonzero;"/>
        <path d="M121.497,36.331C122.415,36.331 123.126,36.089 123.632,35.607C124.139,35.125 124.392,34.527 124.392,33.816L124.392,33.769C124.392,32.945 124.127,32.32 123.597,31.893C123.067,31.465 122.343,31.253 121.425,31.253L118.601,31.253L118.601,36.331L121.497,36.331ZM114.947,27.953L121.734,27.953C122.731,27.953 123.621,28.093 124.404,28.369C125.186,28.646 125.851,29.038 126.398,29.543C126.944,30.049 127.362,30.655 127.655,31.359C127.948,32.063 128.095,32.841 128.095,33.697L128.095,33.744C128.095,34.709 127.92,35.555 127.573,36.282C127.224,37.01 126.745,37.621 126.137,38.112C125.528,38.601 124.815,38.969 124.001,39.214C123.185,39.461 122.311,39.583 121.378,39.583L118.601,39.583L118.601,44.565L114.947,44.565L114.947,27.953L114.947,27.953Z" style="fill:white;fill-rule:nonzero;"/>
        <g>
            <path d="M96.786,66.272C95.489,66.272 94.307,66.058 93.239,65.631C92.172,65.204 91.254,64.611 90.487,63.851C89.72,63.092 89.123,62.191 88.696,61.147C88.269,60.103 88.055,58.964 88.055,57.73L88.055,57.683C88.055,56.496 88.273,55.385 88.708,54.349C89.143,53.313 89.748,52.404 90.523,51.621C91.298,50.838 92.215,50.221 93.275,49.77C94.335,49.319 95.497,49.094 96.763,49.094C97.506,49.094 98.182,49.145 98.791,49.248C99.4,49.351 99.966,49.497 100.488,49.687C101.01,49.877 101.5,50.114 101.959,50.399C102.418,50.683 102.86,51.008 103.287,51.371L100.986,54.147C100.67,53.878 100.353,53.641 100.037,53.436C99.721,53.23 99.392,53.056 99.052,52.914C98.712,52.771 98.345,52.661 97.949,52.581C97.554,52.502 97.119,52.463 96.644,52.463C95.98,52.463 95.359,52.601 94.782,52.878C94.204,53.155 93.698,53.527 93.263,53.993C92.828,54.46 92.488,55.005 92.243,55.63C91.998,56.255 91.875,56.923 91.875,57.635L91.875,57.683C91.875,58.442 91.998,59.142 92.243,59.782C92.488,60.423 92.836,60.981 93.287,61.455C93.738,61.93 94.268,62.297 94.876,62.558C95.485,62.819 96.162,62.95 96.905,62.95C98.265,62.95 99.412,62.618 100.345,61.953L100.345,59.581L96.668,59.581L96.668,56.425L103.881,56.425L103.881,63.638C103.027,64.366 102.01,64.986 100.832,65.5C99.653,66.015 98.305,66.272 96.786,66.272L96.786,66.272Z" style="fill:rgb(0,173,239);fill-rule:nonzero;"/>
            <path d="M113.727,62.902C114.455,62.902 115.127,62.768 115.744,62.499C116.361,62.23 116.887,61.858 117.322,61.384C117.757,60.909 118.097,60.36 118.342,59.735C118.587,59.11 118.71,58.442 118.71,57.73L118.71,57.683C118.71,56.971 118.587,56.299 118.342,55.666C118.097,55.033 117.749,54.48 117.298,54.005C116.847,53.531 116.313,53.155 115.696,52.878C115.08,52.601 114.407,52.463 113.68,52.463C112.936,52.463 112.26,52.597 111.651,52.866C111.042,53.135 110.52,53.507 110.085,53.981C109.65,54.456 109.31,55.005 109.065,55.63C108.82,56.255 108.697,56.923 108.697,57.635L108.697,57.683C108.697,58.394 108.82,59.067 109.065,59.699C109.31,60.332 109.658,60.886 110.109,61.36C110.56,61.835 111.09,62.21 111.698,62.487C112.307,62.764 112.984,62.902 113.727,62.902L113.727,62.902ZM113.68,66.272C112.398,66.272 111.22,66.046 110.144,65.595C109.069,65.145 108.14,64.536 107.357,63.768C106.574,63.001 105.965,62.1 105.53,61.064C105.095,60.028 104.877,58.916 104.877,57.73L104.877,57.683C104.877,56.496 105.099,55.385 105.542,54.349C105.984,53.313 106.597,52.404 107.38,51.621C108.163,50.838 109.097,50.221 110.18,49.77C111.264,49.319 112.446,49.094 113.727,49.094C115.008,49.094 116.187,49.319 117.262,49.77C118.338,50.221 119.267,50.83 120.05,51.597C120.833,52.364 121.442,53.266 121.877,54.302C122.312,55.338 122.53,56.449 122.53,57.635L122.53,57.683C122.53,58.869 122.308,59.98 121.865,61.016C121.422,62.052 120.809,62.962 120.026,63.745C119.243,64.528 118.31,65.145 117.227,65.595C116.143,66.046 114.961,66.272 113.68,66.272L113.68,66.272Z" style="fill:rgb(0,173,239);fill-rule:nonzero;"/>
            <path d="M124.001,49.378L127.654,49.378L127.654,62.665L135.935,62.665L135.935,65.987L124.001,65.987L124.001,49.378L124.001,49.378Z" style="fill:rgb(0,173,239);fill-rule:nonzero;"/>
            <path d="M143.385,62.689C144.128,62.689 144.809,62.57 145.426,62.333C146.042,62.096 146.568,61.756 147.003,61.313C147.438,60.87 147.778,60.348 148.024,59.747C148.269,59.146 148.391,58.473 148.391,57.73L148.391,57.683C148.391,56.955 148.269,56.283 148.024,55.666C147.778,55.049 147.438,54.519 147.003,54.076C146.568,53.633 146.042,53.289 145.426,53.044C144.809,52.799 144.128,52.676 143.385,52.676L140.562,52.676L140.562,62.689L143.385,62.689ZM136.908,49.378L143.385,49.378C144.682,49.378 145.872,49.588 146.956,50.007C148.039,50.426 148.973,51.008 149.756,51.751C150.539,52.494 151.144,53.368 151.571,54.373C151.998,55.377 152.211,56.465 152.211,57.635L152.211,57.683C152.211,58.853 151.998,59.945 151.571,60.957C151.144,61.969 150.539,62.847 149.756,63.59C148.973,64.334 148.039,64.919 146.956,65.346C145.872,65.773 144.682,65.987 143.385,65.987L136.908,65.987L136.908,49.378L136.908,49.378Z" style="fill:rgb(0,173,239);fill-rule:nonzero;"/>
            <path d="M165.952,66.272C164.734,66.272 163.603,66.05 162.559,65.607C161.515,65.164 160.614,64.559 159.854,63.792C159.095,63.025 158.502,62.119 158.075,61.075C157.648,60.032 157.434,58.916 157.434,57.73L157.434,57.683C157.434,56.496 157.648,55.385 158.075,54.349C158.502,53.313 159.095,52.404 159.854,51.621C160.614,50.838 161.523,50.221 162.583,49.77C163.643,49.319 164.813,49.094 166.094,49.094C166.869,49.094 167.577,49.157 168.218,49.283C168.858,49.41 169.44,49.584 169.962,49.805C170.484,50.027 170.966,50.296 171.409,50.612C171.852,50.929 172.263,51.277 172.643,51.656L170.318,54.337C169.669,53.752 169.009,53.293 168.337,52.961C167.664,52.629 166.909,52.463 166.071,52.463C165.375,52.463 164.73,52.597 164.137,52.866C163.544,53.135 163.034,53.507 162.607,53.981C162.18,54.456 161.847,55.005 161.61,55.63C161.373,56.255 161.254,56.923 161.254,57.635L161.254,57.683C161.254,58.394 161.373,59.067 161.61,59.699C161.847,60.332 162.176,60.886 162.595,61.36C163.014,61.835 163.52,62.21 164.113,62.487C164.706,62.764 165.359,62.902 166.071,62.902C167.02,62.902 167.822,62.728 168.479,62.38C169.135,62.032 169.788,61.558 170.436,60.957L172.761,63.306C172.334,63.764 171.892,64.176 171.433,64.54C170.974,64.903 170.472,65.216 169.926,65.477C169.38,65.738 168.783,65.935 168.135,66.07C167.486,66.204 166.759,66.272 165.952,66.272Z" style="fill:rgb(0,173,239);fill-rule:nonzero;"/>
            <path d="M182.015,62.902C182.742,62.902 183.415,62.768 184.031,62.499C184.648,62.23 185.174,61.858 185.609,61.384C186.044,60.909 186.384,60.36 186.63,59.735C186.875,59.11 186.997,58.442 186.997,57.73L186.997,57.683C186.997,56.971 186.875,56.299 186.63,55.666C186.384,55.033 186.036,54.48 185.586,54.005C185.135,53.531 184.601,53.155 183.984,52.878C183.367,52.601 182.695,52.463 181.967,52.463C181.224,52.463 180.548,52.597 179.939,52.866C179.33,53.135 178.808,53.507 178.373,53.981C177.938,54.456 177.598,55.005 177.353,55.63C177.107,56.255 176.985,56.923 176.985,57.635L176.985,57.683C176.985,58.394 177.107,59.067 177.353,59.699C177.598,60.332 177.946,60.886 178.396,61.36C178.847,61.835 179.377,62.21 179.986,62.487C180.595,62.764 181.271,62.902 182.015,62.902L182.015,62.902ZM181.967,66.272C180.686,66.272 179.508,66.046 178.432,65.595C177.356,65.145 176.427,64.536 175.644,63.768C174.861,63.001 174.252,62.1 173.817,61.064C173.382,60.028 173.165,58.916 173.165,57.73L173.165,57.683C173.165,56.496 173.386,55.385 173.829,54.349C174.272,53.313 174.885,52.404 175.668,51.621C176.451,50.838 177.384,50.221 178.468,49.77C179.551,49.319 180.734,49.094 182.015,49.094C183.296,49.094 184.474,49.319 185.55,49.77C186.626,50.221 187.555,50.83 188.338,51.597C189.121,52.364 189.73,53.266 190.165,54.302C190.6,55.338 190.817,56.449 190.817,57.635L190.817,57.683C190.817,58.869 190.596,59.98 190.153,61.016C189.71,62.052 189.097,62.962 188.314,63.745C187.531,64.528 186.598,65.145 185.514,65.595C184.431,66.046 183.249,66.272 181.967,66.272L181.967,66.272Z" style="fill:rgb(0,173,239);fill-rule:nonzero;"/>
            <path d="M201.826,59.035L199.62,53.649L197.413,59.035L201.826,59.035ZM197.983,49.26L201.352,49.26L208.47,65.987L204.65,65.987L203.131,62.262L196.108,62.262L194.59,65.987L190.865,65.987L197.983,49.26L197.983,49.26Z" style="fill:rgb(0,173,239);fill-rule:nonzero;"/>
            <path d="M215.16,66.224C213.895,66.224 212.653,66.007 211.435,65.572C210.218,65.137 209.11,64.468 208.114,63.567L210.273,60.981C211.032,61.597 211.811,62.088 212.61,62.452C213.409,62.815 214.283,62.997 215.232,62.997C215.991,62.997 216.58,62.859 216.999,62.582C217.418,62.305 217.628,61.922 217.628,61.431L217.628,61.384C217.628,61.147 217.585,60.937 217.498,60.755C217.411,60.573 217.244,60.403 216.999,60.245C216.754,60.087 216.414,59.929 215.979,59.771C215.544,59.612 214.979,59.446 214.283,59.272C213.444,59.067 212.685,58.837 212.005,58.584C211.325,58.331 210.747,58.019 210.273,57.647C209.798,57.275 209.431,56.813 209.17,56.259C208.909,55.705 208.778,55.017 208.778,54.195L208.778,54.147C208.778,53.388 208.92,52.704 209.205,52.095C209.49,51.486 209.889,50.96 210.403,50.517C210.917,50.074 211.53,49.734 212.242,49.497C212.954,49.26 213.737,49.141 214.591,49.141C215.809,49.141 216.928,49.323 217.948,49.687C218.969,50.051 219.906,50.573 220.76,51.253L218.862,54.005C218.118,53.499 217.391,53.099 216.679,52.807C215.967,52.514 215.255,52.368 214.544,52.368C213.832,52.368 213.298,52.506 212.942,52.783C212.586,53.06 212.408,53.404 212.408,53.815L212.408,53.863C212.408,54.132 212.46,54.365 212.562,54.563C212.665,54.76 212.851,54.938 213.12,55.096C213.389,55.255 213.757,55.405 214.223,55.547C214.69,55.69 215.279,55.856 215.991,56.046C216.829,56.267 217.577,56.516 218.233,56.793C218.889,57.07 219.443,57.402 219.894,57.789C220.345,58.177 220.685,58.632 220.914,59.154C221.143,59.676 221.258,60.3 221.258,61.028L221.258,61.075C221.258,61.898 221.108,62.63 220.807,63.27C220.507,63.911 220.088,64.449 219.55,64.884C219.012,65.319 218.371,65.651 217.628,65.88C216.885,66.109 216.062,66.224 215.16,66.224Z" style="fill:rgb(0,173,239);fill-rule:nonzero;"/>
            <path d="M226.525,52.748L221.472,52.748L221.472,49.378L235.233,49.378L235.233,52.748L230.179,52.748L230.179,65.987L226.525,65.987L226.525,52.748L226.525,52.748Z" style="fill:rgb(0,173,239);fill-rule:nonzero;"/>
        </g>
    </g>
</svg>
